svg/boombox.svg

<svg xmlns="http://www.w3.org/2000/svg" viewBox="0 0 24 24"><path d="M7 5 5 7v1H3a1 1 0 0 0-1 1v8a1 1 0 0 0 1 1h18a1 1 0 0 0 1-1V9a1 1 0 0 0-1-1h-2V7l-2-2zm0 2h10v1H7zm4 2h2a.5.5 0 0 1 .5.5.5.5 0 0 1-.5.5h-2a.5.5 0 0 1-.5-.5.5.5 0 0 1 .5-.5m-3.5 1.5a3 3 0 0 1 3 3 3 3 0 0 1-3 3 3 3 0 0 1-3-3 3 3 0 0 1 3-3m9 0a3 3 0 0 1 3 3 3 3 0 0 1-3 3 3 3 0 0 1-3-3 3 3 0 0 1 3-3m-9 1.5A1.5 1.5 0 0 0 6 13.5 1.5 1.5 0 0 0 7.5 15 1.5 1.5 0 0 0 9 13.5 1.5 1.5 0 0 0 7.5 12m9 0a1.5 1.5 0 0 0-1.5 1.5 1.5 1.5 0 0 0 1.5 1.5 1.5 1.5 0 0 0 1.5-1.5 1.5 1.5 0 0 0-1.5-1.5"/></svg>

<?xml version="1.0" encoding="UTF-8"?><!DOCTYPE svg PUBLIC "-//W3C//DTD SVG 1.1//EN" "http://www.w3.org/Graphics/SVG/1.1/DTD/svg11.dtd"><svg xmlns="http://www.w3.org/2000/svg" xmlns:xlink="http://www.w3.org/1999/xlink" version="1.1" id="mdi-boombox" width="24" height="24" viewBox="0 0 24 24"><path d="M7,5L5,7V8H3A1,1 0 0,0 2,9V17A1,1 0 0,0 3,18H21A1,1 0 0,0 22,17V9A1,1 0 0,0 21,8H19V7L17,5H7M7,7H17V8H7V7M11,9H13A0.5,0.5 0 0,1 13.5,9.5A0.5,0.5 0 0,1 13,10H11A0.5,0.5 0 0,1 10.5,9.5A0.5,0.5 0 0,1 11,9M7.5,10.5A3,3 0 0,1 10.5,13.5A3,3 0 0,1 7.5,16.5A3,3 0 0,1 4.5,13.5A3,3 0 0,1 7.5,10.5M16.5,10.5A3,3 0 0,1 19.5,13.5A3,3 0 0,1 16.5,16.5A3,3 0 0,1 13.5,13.5A3,3 0 0,1 16.5,10.5M7.5,12A1.5,1.5 0 0,0 6,13.5A1.5,1.5 0 0,0 7.5,15A1.5,1.5 0 0,0 9,13.5A1.5,1.5 0 0,0 7.5,12M16.5,12A1.5,1.5 0 0,0 15,13.5A1.5,1.5 0 0,0 16.5,15A1.5,1.5 0 0,0 18,13.5A1.5,1.5 0 0,0 16.5,12Z" /></svg>
